neru-light-classic/32x32/apps/eko.svg

<?xml version="1.0" encoding="UTF-8" standalone="no"?>
<svg
   xmlns:dc="http://purl.org/dc/elements/1.1/"
   xmlns:cc="http://creativecommons.org/ns#"
   xmlns:rdf="http://www.w3.org/1999/02/22-rdf-syntax-ns#"
   xmlns:svg="http://www.w3.org/2000/svg"
   xmlns="http://www.w3.org/2000/svg"
   xmlns:sodipodi="http://sodipodi.sourceforge.net/DTD/sodipodi-0.dtd"
   xmlns:inkscape="http://www.inkscape.org/namespaces/inkscape"
   height="32"
   width="32"
   version="1"
   id="svg12"
   sodipodi:docname="eko.svg"
   inkscape:version="0.92.1 r">
  <metadata
     id="metadata18">
    <rdf:RDF>
      <cc:Work
         rdf:about="">
        <dc:format>image/svg+xml</dc:format>
        <dc:type
           rdf:resource="http://purl.org/dc/dcmitype/StillImage" />
        <dc:title></dc:title>
      </cc:Work>
    </rdf:RDF>
  </metadata>
  <defs
     id="defs16" />
  <sodipodi:namedview
     pagecolor="#ffffff"
     bordercolor="#666666"
     borderopacity="1"
     objecttolerance="10"
     gridtolerance="10"
     guidetolerance="10"
     inkscape:pageopacity="0"
     inkscape:pageshadow="2"
     inkscape:window-width="1680"
     inkscape:window-height="955"
     id="namedview14"
     showgrid="false"
     showguides="true"
     inkscape:guide-bbox="true"
     inkscape:zoom="7.375"
     inkscape:cx="40.532906"
     inkscape:cy="22.492503"
     inkscape:window-x="0"
     inkscape:window-y="0"
     inkscape:window-maximized="1"
     inkscape:current-layer="svg12" />
  <path
     style="opacity:1;fill:#47ad5d;fill-opacity:1;fill-rule:evenodd;stroke:none;stroke-width:1.03534329;stroke-linecap:round;stroke-linejoin:bevel;stroke-miterlimit:4;stroke-dasharray:none;stroke-dashoffset:0;stroke-opacity:1"
     d="M 30.101562 21.136719 C 29.705668 20.148538 29.29373 19.178651 28.794922 18.328125 C 28.17609 17.272945 27.482995 16.324208 26.732422 15.480469 C 25.981848 14.636729 25.173108 13.8984 24.320312 13.265625 C 23.467517 12.63285 22.570027 12.105881 21.644531 11.683594 C 20.719035 11.261307 19.765552 10.942744 18.796875 10.730469 C 17.828198 10.518194 16.845619 10.410943 15.863281 10.408203 C 14.880944 10.405464 13.898119 10.508524 12.931641 10.714844 C 11.965163 10.921164 11.014848 11.231581 10.09375 11.646484 C 9.1726519 12.061388 8.2817447 12.580114 7.4355469 13.203125 C 6.5893491 13.826136 5.7866991 14.552171 5.0449219 15.382812 C 4.3031447 16.213454 3.6215082 17.149703 3.0136719 18.1875 C 2.586243 18.917276 2.2472033 19.761739 1.8984375 20.59375 L 1.8984375 24.527344 C 1.8984375 27.615995 4.3840054 30.101562 7.4726562 30.101562 L 24.527344 30.101562 C 27.615995 30.101563 30.101562 27.615995 30.101562 24.527344 L 30.101562 21.136719 z "
     id="path4505" />
  <path
     style="opacity:1;fill:#00512d;fill-opacity:1;fill-rule:evenodd;stroke:none;stroke-width:1.03534329;stroke-linecap:round;stroke-linejoin:bevel;stroke-miterlimit:4;stroke-dasharray:none;stroke-dashoffset:0;stroke-opacity:1"
     d="M 7.4726562 1.8984375 C 4.3840054 1.8984375 1.8984375 4.3840054 1.8984375 7.4726562 L 1.8984375 20.59375 C 2.2472033 19.761739 2.586243 18.917276 3.0136719 18.1875 C 3.6215082 17.149703 4.3031447 16.213454 5.0449219 15.382812 C 5.7866991 14.552171 6.5893491 13.826136 7.4355469 13.203125 C 8.2817447 12.580114 9.1726519 12.061388 10.09375 11.646484 C 11.014848 11.231581 11.965163 10.921164 12.931641 10.714844 C 13.898119 10.508524 14.880944 10.405464 15.863281 10.408203 C 16.845619 10.410943 17.828198 10.518194 18.796875 10.730469 C 19.765552 10.942744 20.719035 11.261307 21.644531 11.683594 C 22.570027 12.105881 23.467517 12.63285 24.320312 13.265625 C 25.173108 13.8984 25.981848 14.636729 26.732422 15.480469 C 27.482995 16.324208 28.17609 17.272945 28.794922 18.328125 C 29.29373 19.178651 29.705668 20.148538 30.101562 21.136719 L 30.101562 7.4726562 C 30.101563 4.3840054 27.615995 1.8984375 24.527344 1.8984375 L 7.4726562 1.8984375 z "
     id="rect4497-3" />
  <path
     style="fill:#ffe700;fill-opacity:1;stroke:none;stroke-width:0.1;stroke-linecap:butt;stroke-linejoin:miter;stroke-miterlimit:4;stroke-dasharray:none;stroke-opacity:1"
     d="m 8.2824761,22.138929 c 6.0482419,1.19899 8.3725189,1.57333 15.0518169,0.0678 -9.583728,6.452063 -4.279637,5.099043 -15.0518169,-0.0678 z"
     id="path4524"
     inkscape:connector-curvature="0"
     sodipodi:nodetypes="ccc" />
  <g
     id="g4565"
     transform="translate(0.38843393)">
    <ellipse
       ry="4.1227922"
       rx="2.138829"
       cy="16"
       cx="22.612963"
       id="path4507-3"
       style="opacity:1;fill:#d00b5a;fill-opacity:1;fill-rule:evenodd;stroke:none;stroke-width:1.5;stroke-linecap:round;stroke-linejoin:bevel;stroke-miterlimit:4;stroke-dasharray:none;stroke-dashoffset:0;stroke-opacity:1" />
    <ellipse
       ry="1.559322"
       rx="1.3559322"
       cy="16"
       cx="22.711864"
       id="path4526-6"
       style="opacity:1;fill:#333333;fill-opacity:1;fill-rule:evenodd;stroke:none;stroke-width:0.1;stroke-linecap:round;stroke-linejoin:bevel;stroke-miterlimit:4;stroke-dasharray:none;stroke-dashoffset:0;stroke-opacity:1" />
    <ellipse
       ry="4.1227922"
       rx="2.138829"
       cy="16"
       cx="8.6101694"
       id="path4507-3-7"
       style="opacity:1;fill:#d00b5a;fill-opacity:1;fill-rule:evenodd;stroke:none;stroke-width:1.5;stroke-linecap:round;stroke-linejoin:bevel;stroke-miterlimit:4;stroke-dasharray:none;stroke-dashoffset:0;stroke-opacity:1" />
    <ellipse
       ry="1.559322"
       rx="1.3559322"
       cy="16"
       cx="8.7090712"
       id="path4526-6-5"
       style="opacity:1;fill:#333333;fill-opacity:1;fill-rule:evenodd;stroke:none;stroke-width:0.1;stroke-linecap:round;stroke-linejoin:bevel;stroke-miterlimit:4;stroke-dasharray:none;stroke-dashoffset:0;stroke-opacity:1" />
  </g>
</svg>

<svg xmlns="http://www.w3.org/2000/svg" height="32" width="32" version="1"><path d="M30.102 21.137c-.396-.988-.808-1.958-1.307-2.809a17.897 17.897 0 0 0-2.063-2.848 15.959 15.959 0 0 0-2.412-2.214 14.801 14.801 0 0 0-2.675-1.582 14.16 14.16 0 0 0-2.848-.954 13.88 13.88 0 0 0-8.703.916c-.921.415-1.812.934-2.658 1.557a15.628 15.628 0 0 0-2.391 2.18 17.418 17.418 0 0 0-2.031 2.805c-.428.73-.767 1.574-1.116 2.406v3.933a5.561 5.561 0 0 0 5.575 5.575h17.054a5.561 5.561 0 0 0 5.575-5.575v-3.39z" fill="#47ad5d" fill-rule="evenodd"/><path d="M7.473 1.898a5.561 5.561 0 0 0-5.575 5.575v13.12c.35-.831.688-1.676 1.116-2.405a17.418 17.418 0 0 1 2.03-2.805 15.628 15.628 0 0 1 2.392-2.18 14.587 14.587 0 0 1 2.658-1.557 14.045 14.045 0 0 1 2.838-.931 13.859 13.859 0 0 1 5.865.015c.969.213 1.922.531 2.848.954.925.422 1.823.949 2.675 1.582a15.959 15.959 0 0 1 2.412 2.214c.751.844 1.444 1.793 2.063 2.848.499.85.91 1.82 1.307 2.809V7.473a5.561 5.561 0 0 0-5.575-5.575H7.473z" fill="#00512d" fill-rule="evenodd"/><path d="M8.282 22.139c6.049 1.199 8.373 1.573 15.052.068-9.583 6.452-4.28 5.099-15.052-.068z" fill="#ffe700"/><g transform="translate(.388)" fill-rule="evenodd"><ellipse ry="4.123" rx="2.139" cy="16" cx="22.613" fill="#d00b5a"/><ellipse ry="1.559" rx="1.356" cy="16" cx="22.712" fill="#333"/><ellipse ry="4.123" rx="2.139" cy="16" cx="8.61" fill="#d00b5a"/><ellipse ry="1.559" rx="1.356" cy="16" cx="8.709" fill="#333"/></g></svg>
